icons/evolvere-blue-folders-flat-vivid-dark-fallback/mimetypes/64/ms-office-document.svg

<svg xmlns="http://www.w3.org/2000/svg" viewBox="0 0 64 64"><path d="m4 0h60v62h-60z" fill="#166ec7"/><path d="m60 2v31l-24.322 29h28.322v-25-31l-4-4" fill="#002f5f" fill-opacity=".305"/><path d="m0 2h60v31l-26 31h-34z" fill="#2f90f2"/><path d="m34 64l26-31c-2.329 2.776-4.361 3-11 3h-12v15c0 6.644.044 9.37-3 13" fill="#1274d6"/><g fill="#eaedee" color="#000"><path d="m5 7v2h24v-2h-24m0 5v2h24v-2h-24m0 5v2h24v-2h-24"/><path d="m47 7c-.554 0-1 .446-1 1v3h2v-2h5v5h-2v2h3c.554 0 1-.446 1-1v-7c0-.554-.446-1-1-1h-7m.5 6c-.828 0-1.5.672-1.5 1.5 0 .828.672 1.5 1.5 1.5.828 0 1.5-.672 1.5-1.5 0-.828-.672-1.5-1.5-1.5"/></g></svg>

<?xml version="1.0" encoding="UTF-8" standalone="no"?>
<!-- Created with Inkscape (http://www.inkscape.org/) -->

<svg
   xmlns:dc="http://purl.org/dc/elements/1.1/"
   xmlns:cc="http://creativecommons.org/ns#"
   xmlns:rdf="http://www.w3.org/1999/02/22-rdf-syntax-ns#"
   xmlns:svg="http://www.w3.org/2000/svg"
   xmlns="http://www.w3.org/2000/svg"
   xmlns:sodipodi="http://sodipodi.sourceforge.net/DTD/sodipodi-0.dtd"
   xmlns:inkscape="http://www.inkscape.org/namespaces/inkscape"
   version="1.1"
   width="64"
   height="64"
   id="svg13094"
   inkscape:version="0.48.4 r9939"
   sodipodi:docname="ms-office-document.svg">
  <sodipodi:namedview
     pagecolor="#ffffff"
     bordercolor="#666666"
     borderopacity="1"
     objecttolerance="10"
     gridtolerance="10"
     guidetolerance="10"
     inkscape:pageopacity="0"
     inkscape:pageshadow="2"
     inkscape:window-width="1920"
     inkscape:window-height="1022"
     id="namedview68"
     showgrid="true"
     inkscape:zoom="11.313708"
     inkscape:cx="33.95975"
     inkscape:cy="32.082375"
     inkscape:window-x="-5"
     inkscape:window-y="23"
     inkscape:window-maximized="1"
     inkscape:current-layer="svg13094"
     inkscape:snap-bbox="true"
     inkscape:bbox-paths="true"
     inkscape:bbox-nodes="true"
     inkscape:snap-bbox-edge-midpoints="true"
     inkscape:snap-bbox-midpoints="true"
     inkscape:snap-nodes="true"
     inkscape:object-paths="true"
     inkscape:snap-intersection-paths="true"
     inkscape:object-nodes="true"
     inkscape:snap-smooth-nodes="true"
     inkscape:snap-midpoints="true"
     inkscape:snap-others="true">
    <inkscape:grid
       type="xygrid"
       id="grid4173" />
  </sodipodi:namedview>
  <defs
     id="defs11">
    <linearGradient
       x1="31"
       y1="64"
       x2="31"
       y2="2"
       id="linearGradient3984-5-4"
       gradientUnits="userSpaceOnUse">
      <stop
         id="stop3099-8-9"
         style="stop-color:#3e92e6;stop-opacity:1"
         offset="0" />
      <stop
         id="stop3875-8-7"
         style="stop-color:#3e92e6;stop-opacity:1"
         offset="0.5" />
      <stop
         id="stop3873-3"
         style="stop-color:#2980d9;stop-opacity:1"
         offset="0.5" />
      <stop
         id="stop3101-0-0"
         style="stop-color:#2980d9;stop-opacity:1"
         offset="1" />
    </linearGradient>
  </defs>
  <metadata
     id="metadata13099">
    <rdf:RDF>
      <cc:Work
         rdf:about="">
        <dc:format>image/svg+xml</dc:format>
        <dc:type
           rdf:resource="http://purl.org/dc/dcmitype/StillImage" />
        <dc:title />
      </cc:Work>
    </rdf:RDF>
  </metadata>
  <path
     inkscape:connector-curvature="0"
     d="M 4,0 64,0 64,62 4,62 z"
     id="path3960"
     style="fill:#166ec7;fill-opacity:1;fill-rule:nonzero" />
  <path
     style="fill:#002f5f;fill-rule:nonzero;fill-opacity:0.30526316"
     d="M 60 2 L 60 33 L 35.677734 62 L 64 62 L 64 37 L 64 6 L 60 2 z "
     id="path3900" />
  <path
     inkscape:connector-curvature="0"
     d="M 0,2 60,2 60,33 34,64 0,64 z"
     id="path3982"
     style="fill:#2f90f2;fill-rule:nonzero;fill-opacity:1" />
  <path
     inkscape:connector-curvature="0"
     d="M 34,64 60,33 c -2.328567,2.776369 -4.36141,3 -11,3 H 37 v 15 c 0,6.64407 0.04437,9.37018 -3,13 z"
     id="path4278"
     style="fill:#1274d6;fill-rule:nonzero;fill-opacity:1" />
  <path
     style="color:#000000;fill:#eaedee;fill-opacity:1;fill-rule:nonzero;stroke:none;stroke-width:1;marker:none;visibility:visible;display:inline;overflow:visible;enable-background:accumulate"
     d="M 5,7 5,9 29,9 29,7 5,7 z m 0,5 0,2 24,0 0,-2 -24,0 z m 0,5 0,2 24,0 0,-2 -24,0 z"
     id="path3005"
     inkscape:connector-curvature="0" />
  <path
     style="color:#000000;fill:#eaedee;fill-opacity:1;fill-rule:nonzero;stroke:none;stroke-width:1;marker:none;visibility:visible;display:inline;overflow:visible;enable-background:accumulate"
     d="m 47,7 c -0.554,0 -1,0.446 -1,1 l 0,3 2,0 0,-2 5,0 0,5 -2,0 0,2 3,0 c 0.554,0 1,-0.446 1,-1 L 55,8 C 55,7.446 54.554,7 54,7 l -7,0 z m 0.5,6 C 46.67157,13 46,13.67157 46,14.5 46,15.32843 46.67157,16 47.5,16 48.32843,16 49,15.32843 49,14.5 49,13.67157 48.32843,13 47.5,13 z"
     id="path3003"
     inkscape:connector-curvature="0" />
</svg>
